X: 8806
T: Cuddy With The Wooden Leg, The
R: slip jig
M: 9/8
K: Eminor
|:B2g g2f e2d|e2B B2A B2c|B2g g2f e2d|e3 B6|
B2g g2f e2d|e2B B2A B2c|B2g g2f e2d|e3 B6|
c2B A2c B2A|B2A G2A B2G|ABA G2A F2G|E2F G2A B2c|
c2B A2c B2A|B2A G2A B2G|ABA G2A F2G|1 E3E2B B2A:|2 E3E2E E2D||
K: Aminor
E2A A2B c2E|A3 A2B c2e|d3 g3 g3|e6e2e|
f2e d2f e2d|e3 c3 A3|B3 e3 cdc|B3 FGF E3|
E2A A2B c2E|A3 A2B c2e|d3 g3 g3|e6e2e|
f2a g2f e2d|e3 c3 A3|B3 e3 ^G3|A3A2B B2A:|

